images/3232755.svg

<?xml version="1.0" encoding="UTF-8"?>
<svg xmlns="http://www.w3.org/2000/svg" xmlns:xlink="http://www.w3.org/1999/xlink" width="300pt" height="300pt" viewBox="0 0 300 300" version="1.1">
<defs>
<g>
<symbol overflow="visible" id="glyph0-0">
<path style="stroke:none;" d="M 0.546875 1.9375 L 0.546875 -7.75 L 6.046875 -7.75 L 6.046875 1.9375 Z M 1.171875 1.328125 L 5.4375 1.328125 L 5.4375 -7.140625 L 1.171875 -7.140625 Z M 1.171875 1.328125 "/>
</symbol>
<symbol overflow="visible" id="glyph0-1">
<path style="stroke:none;" d="M 1.078125 -8.015625 L 2.546875 -8.015625 L 6.09375 -1.3125 L 6.09375 -8.015625 L 7.15625 -8.015625 L 7.15625 0 L 5.6875 0 L 2.125 -6.703125 L 2.125 0 L 1.078125 0 Z M 1.078125 -8.015625 "/>
</symbol>
<symbol overflow="visible" id="glyph0-2">
<path style="stroke:none;" d="M 4.328125 -7.28125 C 3.546875 -7.28125 2.921875 -6.984375 2.453125 -6.390625 C 1.992188 -5.804688 1.765625 -5.007812 1.765625 -4 C 1.765625 -2.988281 1.992188 -2.1875 2.453125 -1.59375 C 2.921875 -1.007812 3.546875 -0.71875 4.328125 -0.71875 C 5.117188 -0.71875 5.742188 -1.007812 6.203125 -1.59375 C 6.660156 -2.1875 6.890625 -2.988281 6.890625 -4 C 6.890625 -5.007812 6.660156 -5.804688 6.203125 -6.390625 C 5.742188 -6.984375 5.117188 -7.28125 4.328125 -7.28125 Z M 4.328125 -8.171875 C 5.453125 -8.171875 6.351562 -7.789062 7.03125 -7.03125 C 7.707031 -6.28125 8.046875 -5.269531 8.046875 -4 C 8.046875 -2.738281 7.707031 -1.726562 7.03125 -0.96875 C 6.351562 -0.21875 5.453125 0.15625 4.328125 0.15625 C 3.203125 0.15625 2.300781 -0.21875 1.625 -0.96875 C 0.957031 -1.71875 0.625 -2.726562 0.625 -4 C 0.625 -5.269531 0.957031 -6.28125 1.625 -7.03125 C 2.300781 -7.789062 3.203125 -8.171875 4.328125 -8.171875 Z M 4.328125 -8.171875 "/>
</symbol>
</g>
</defs>
<g id="surface39905">
<rect x="0" y="0" width="300" height="300" style="fill:rgb(100%,100%,100%);fill-opacity:1;stroke:none;"/>
<path style="fill:none;stroke-width:1.2;stroke-linecap:butt;stroke-linejoin:miter;stroke:rgb(0%,0%,0%);stroke-opacity:1;stroke-miterlimit:10;" d="M 35.25 153.675781 L 47.039062 148.679688 "/>
<path style="fill:none;stroke-width:1.2;stroke-linecap:butt;stroke-linejoin:miter;stroke:rgb(0%,0%,100%);stroke-opacity:1;stroke-miterlimit:10;" d="M 47.039062 148.679688 L 58.828125 143.6875 "/>
<path style="fill:none;stroke-width:1.2;stroke-linecap:butt;stroke-linejoin:miter;stroke:rgb(0%,0%,100%);stroke-opacity:1;stroke-miterlimit:10;" d="M 58.828125 143.6875 L 60.394531 130.980469 "/>
<path style="fill:none;stroke-width:1.2;stroke-linecap:butt;stroke-linejoin:miter;stroke:rgb(0%,0%,0%);stroke-opacity:1;stroke-miterlimit:10;" d="M 60.394531 130.980469 L 61.964844 118.273438 "/>
<path style="fill:none;stroke-width:1.2;stroke-linecap:butt;stroke-linejoin:miter;stroke:rgb(0%,0%,100%);stroke-opacity:1;stroke-miterlimit:10;" d="M 58.828125 143.6875 L 69.046875 151.398438 "/>
<path style="fill:none;stroke-width:1.2;stroke-linecap:butt;stroke-linejoin:miter;stroke:rgb(0%,0%,0%);stroke-opacity:1;stroke-miterlimit:10;" d="M 69.046875 151.398438 L 79.265625 159.109375 "/>
<path style=" stroke:none;fill-rule:nonzero;fill:rgb(100%,100%,100%);fill-opacity:1;" d="M 54.828125 137.1875 L 62.828125 137.1875 L 62.828125 150.1875 L 54.828125 150.1875 Z M 54.828125 137.1875 "/>
<g style="fill:rgb(0%,0%,100%);fill-opacity:1;">
  <use xlink:href="#glyph0-1" x="54.828125" y="147.088867"/>
</g>
<path style="fill:none;stroke-width:1.2;stroke-linecap:butt;stroke-linejoin:miter;stroke:rgb(0%,0%,0%);stroke-opacity:1;stroke-miterlimit:10;" d="M 76.277344 158.742188 L 74.707031 171.449219 "/>
<path style="fill:none;stroke-width:1.2;stroke-linecap:butt;stroke-linejoin:miter;stroke:rgb(100%,0%,0%);stroke-opacity:1;stroke-miterlimit:10;" d="M 74.707031 171.449219 L 73.140625 184.15625 "/>
<path style="fill:none;stroke-width:1.2;stroke-linecap:butt;stroke-linejoin:miter;stroke:rgb(0%,0%,0%);stroke-opacity:1;stroke-miterlimit:10;" d="M 82.257812 159.480469 L 80.6875 172.1875 "/>
<path style="fill:none;stroke-width:1.2;stroke-linecap:butt;stroke-linejoin:miter;stroke:rgb(100%,0%,0%);stroke-opacity:1;stroke-miterlimit:10;" d="M 80.6875 172.1875 L 79.121094 184.894531 "/>
<path style="fill:none;stroke-width:1.2;stroke-linecap:butt;stroke-linejoin:miter;stroke:rgb(0%,0%,0%);stroke-opacity:1;stroke-miterlimit:10;" d="M 79.265625 159.109375 L 102.84375 149.121094 "/>
<path style=" stroke:none;fill-rule:nonzero;fill:rgb(100%,100%,100%);fill-opacity:1;" d="M 72.128906 178.023438 L 81.128906 178.023438 L 81.128906 191.023438 L 72.128906 191.023438 Z M 72.128906 178.023438 "/>
<g style="fill:rgb(100%,0%,0%);fill-opacity:1;">
  <use xlink:href="#glyph0-2" x="72.128906" y="187.924805"/>
</g>
<path style="fill:none;stroke-width:1.2;stroke-linecap:butt;stroke-linejoin:miter;stroke:rgb(0%,0%,0%);stroke-opacity:1;stroke-miterlimit:10;" d="M 102.84375 149.121094 L 105.984375 123.707031 "/>
<path style="fill:none;stroke-width:1.2;stroke-linecap:butt;stroke-linejoin:miter;stroke:rgb(0%,0%,0%);stroke-opacity:1;stroke-miterlimit:10;" d="M 109.136719 147.316406 L 111.648438 126.988281 "/>
<path style="fill:none;stroke-width:1.2;stroke-linecap:butt;stroke-linejoin:miter;stroke:rgb(0%,0%,0%);stroke-opacity:1;stroke-miterlimit:10;" d="M 123.285156 164.542969 L 102.84375 149.121094 "/>
<path style="fill:none;stroke-width:1.2;stroke-linecap:butt;stroke-linejoin:miter;stroke:rgb(0%,0%,0%);stroke-opacity:1;stroke-miterlimit:10;" d="M 105.984375 123.707031 L 129.558594 113.71875 "/>
<path style="fill:none;stroke-width:1.2;stroke-linecap:butt;stroke-linejoin:miter;stroke:rgb(0%,0%,0%);stroke-opacity:1;stroke-miterlimit:10;" d="M 129.558594 113.71875 L 150 129.140625 "/>
<path style="fill:none;stroke-width:1.2;stroke-linecap:butt;stroke-linejoin:miter;stroke:rgb(0%,0%,0%);stroke-opacity:1;stroke-miterlimit:10;" d="M 127.976562 120.070312 L 144.328125 132.410156 "/>
<path style="fill:none;stroke-width:1.2;stroke-linecap:butt;stroke-linejoin:miter;stroke:rgb(0%,0%,0%);stroke-opacity:1;stroke-miterlimit:10;" d="M 150 129.140625 L 146.863281 154.554688 "/>
<path style="fill:none;stroke-width:1.2;stroke-linecap:butt;stroke-linejoin:miter;stroke:rgb(0%,0%,0%);stroke-opacity:1;stroke-miterlimit:10;" d="M 150 129.140625 L 173.578125 119.152344 "/>
<path style="fill:none;stroke-width:1.2;stroke-linecap:butt;stroke-linejoin:miter;stroke:rgb(0%,0%,0%);stroke-opacity:1;stroke-miterlimit:10;" d="M 146.863281 154.554688 L 123.285156 164.542969 "/>
<path style="fill:none;stroke-width:1.2;stroke-linecap:butt;stroke-linejoin:miter;stroke:rgb(0%,0%,0%);stroke-opacity:1;stroke-miterlimit:10;" d="M 142.152344 150.007812 L 123.292969 157.996094 "/>
<path style="fill:none;stroke-width:1.2;stroke-linecap:butt;stroke-linejoin:miter;stroke:rgb(0%,0%,0%);stroke-opacity:1;stroke-miterlimit:10;" d="M 173.578125 119.152344 L 194.015625 134.574219 "/>
<path style="fill:none;stroke-width:1.2;stroke-linecap:butt;stroke-linejoin:miter;stroke:rgb(0%,0%,0%);stroke-opacity:1;stroke-miterlimit:10;" d="M 179.25 115.886719 L 195.601562 128.222656 "/>
<path style="fill:none;stroke-width:1.2;stroke-linecap:butt;stroke-linejoin:miter;stroke:rgb(0%,0%,0%);stroke-opacity:1;stroke-miterlimit:10;" d="M 176.714844 93.738281 L 173.578125 119.152344 "/>
<path style="fill:none;stroke-width:1.2;stroke-linecap:butt;stroke-linejoin:miter;stroke:rgb(0%,0%,0%);stroke-opacity:1;stroke-miterlimit:10;" d="M 194.015625 134.574219 L 217.59375 124.585938 "/>
<path style="fill:none;stroke-width:1.2;stroke-linecap:butt;stroke-linejoin:miter;stroke:rgb(0%,0%,0%);stroke-opacity:1;stroke-miterlimit:10;" d="M 217.59375 124.585938 L 220.734375 99.171875 "/>
<path style="fill:none;stroke-width:1.2;stroke-linecap:butt;stroke-linejoin:miter;stroke:rgb(0%,0%,0%);stroke-opacity:1;stroke-miterlimit:10;" d="M 223.886719 122.785156 L 226.398438 102.453125 "/>
<path style="fill:none;stroke-width:1.2;stroke-linecap:butt;stroke-linejoin:miter;stroke:rgb(0%,0%,0%);stroke-opacity:1;stroke-miterlimit:10;" d="M 238.035156 140.011719 L 217.59375 124.585938 "/>
<path style="fill:none;stroke-width:1.2;stroke-linecap:butt;stroke-linejoin:miter;stroke:rgb(0%,0%,0%);stroke-opacity:1;stroke-miterlimit:10;" d="M 220.734375 99.171875 L 200.292969 83.75 "/>
<path style="fill:none;stroke-width:1.2;stroke-linecap:butt;stroke-linejoin:miter;stroke:rgb(0%,0%,0%);stroke-opacity:1;stroke-miterlimit:10;" d="M 220.734375 99.171875 L 232.519531 94.179688 "/>
<path style="fill:none;stroke-width:1.2;stroke-linecap:butt;stroke-linejoin:miter;stroke:rgb(0%,0%,100%);stroke-opacity:1;stroke-miterlimit:10;" d="M 232.519531 94.179688 L 244.308594 89.183594 "/>
<path style="fill:none;stroke-width:1.2;stroke-linecap:butt;stroke-linejoin:miter;stroke:rgb(0%,0%,0%);stroke-opacity:1;stroke-miterlimit:10;" d="M 200.292969 83.75 L 176.714844 93.738281 "/>
<path style="fill:none;stroke-width:1.2;stroke-linecap:butt;stroke-linejoin:miter;stroke:rgb(0%,0%,0%);stroke-opacity:1;stroke-miterlimit:10;" d="M 200.285156 90.296875 L 181.421875 98.289062 "/>
<path style="fill:none;stroke-width:1.2;stroke-linecap:butt;stroke-linejoin:miter;stroke:rgb(0%,0%,100%);stroke-opacity:1;stroke-miterlimit:10;" d="M 244.308594 89.183594 L 254.53125 96.894531 "/>
<path style="fill:none;stroke-width:1.2;stroke-linecap:butt;stroke-linejoin:miter;stroke:rgb(0%,0%,0%);stroke-opacity:1;stroke-miterlimit:10;" d="M 254.53125 96.894531 L 264.75 104.609375 "/>
<path style="fill:none;stroke-width:1.2;stroke-linecap:butt;stroke-linejoin:miter;stroke:rgb(0%,0%,100%);stroke-opacity:1;stroke-miterlimit:10;" d="M 242.726562 95.535156 L 250.902344 101.703125 "/>
<path style="fill:none;stroke-width:1.2;stroke-linecap:butt;stroke-linejoin:miter;stroke:rgb(0%,0%,0%);stroke-opacity:1;stroke-miterlimit:10;" d="M 250.902344 101.703125 L 259.078125 107.875 "/>
<path style=" stroke:none;fill-rule:nonzero;fill:rgb(100%,100%,100%);fill-opacity:1;" d="M 240.308594 82.683594 L 248.308594 82.683594 L 248.308594 95.683594 L 240.308594 95.683594 Z M 240.308594 82.683594 "/>
<g style="fill:rgb(0%,0%,100%);fill-opacity:1;">
  <use xlink:href="#glyph0-1" x="240.308594" y="92.584961"/>
</g>
<path style="fill:none;stroke-width:1.2;stroke-linecap:butt;stroke-linejoin:miter;stroke:rgb(0%,0%,0%);stroke-opacity:1;stroke-miterlimit:10;" d="M 264.75 104.609375 L 263.179688 117.3125 "/>
<path style="fill:none;stroke-width:1.2;stroke-linecap:butt;stroke-linejoin:miter;stroke:rgb(0%,0%,100%);stroke-opacity:1;stroke-miterlimit:10;" d="M 263.179688 117.3125 L 261.613281 130.019531 "/>
<path style="fill:none;stroke-width:1.2;stroke-linecap:butt;stroke-linejoin:miter;stroke:rgb(0%,0%,100%);stroke-opacity:1;stroke-miterlimit:10;" d="M 261.613281 130.019531 L 249.824219 135.015625 "/>
<path style="fill:none;stroke-width:1.2;stroke-linecap:butt;stroke-linejoin:miter;stroke:rgb(0%,0%,0%);stroke-opacity:1;stroke-miterlimit:10;" d="M 249.824219 135.015625 L 238.035156 140.011719 "/>
<path style="fill:none;stroke-width:1.2;stroke-linecap:butt;stroke-linejoin:miter;stroke:rgb(0%,0%,100%);stroke-opacity:1;stroke-miterlimit:10;" d="M 256.902344 125.472656 L 247.472656 129.46875 "/>
<path style="fill:none;stroke-width:1.2;stroke-linecap:butt;stroke-linejoin:miter;stroke:rgb(0%,0%,0%);stroke-opacity:1;stroke-miterlimit:10;" d="M 247.472656 129.46875 L 238.042969 133.464844 "/>
<path style=" stroke:none;fill-rule:nonzero;fill:rgb(100%,100%,100%);fill-opacity:1;" d="M 257.613281 123.519531 L 265.613281 123.519531 L 265.613281 136.519531 L 257.613281 136.519531 Z M 257.613281 123.519531 "/>
<g style="fill:rgb(0%,0%,100%);fill-opacity:1;">
  <use xlink:href="#glyph0-1" x="257.613281" y="133.420898"/>
</g>
<path style="fill:none;stroke-width:1.2;stroke-linecap:butt;stroke-linejoin:miter;stroke:rgb(0%,0%,0%);stroke-opacity:1;stroke-miterlimit:10;" d="M 238.035156 140.011719 L 236.464844 152.71875 "/>
<path style="fill:none;stroke-width:1.2;stroke-linecap:butt;stroke-linejoin:miter;stroke:rgb(0%,0%,100%);stroke-opacity:1;stroke-miterlimit:10;" d="M 236.464844 152.71875 L 234.898438 165.425781 "/>
<path style="fill:none;stroke-width:1.2;stroke-linecap:butt;stroke-linejoin:miter;stroke:rgb(0%,0%,100%);stroke-opacity:1;stroke-miterlimit:10;" d="M 234.898438 165.425781 L 223.109375 170.417969 "/>
<path style="fill:none;stroke-width:1.2;stroke-linecap:butt;stroke-linejoin:miter;stroke:rgb(0%,0%,0%);stroke-opacity:1;stroke-miterlimit:10;" d="M 223.109375 170.417969 L 211.320312 175.414062 "/>
<path style="fill:none;stroke-width:1.2;stroke-linecap:butt;stroke-linejoin:miter;stroke:rgb(0%,0%,0%);stroke-opacity:1;stroke-miterlimit:10;" d="M 255.335938 180.847656 L 245.117188 173.136719 "/>
<path style="fill:none;stroke-width:1.2;stroke-linecap:butt;stroke-linejoin:miter;stroke:rgb(0%,0%,100%);stroke-opacity:1;stroke-miterlimit:10;" d="M 245.117188 173.136719 L 234.898438 165.425781 "/>
<path style=" stroke:none;fill-rule:nonzero;fill:rgb(100%,100%,100%);fill-opacity:1;" d="M 230.898438 158.925781 L 238.898438 158.925781 L 238.898438 171.925781 L 230.898438 171.925781 Z M 230.898438 158.925781 "/>
<g style="fill:rgb(0%,0%,100%);fill-opacity:1;">
  <use xlink:href="#glyph0-1" x="230.898438" y="168.827148"/>
</g>
<path style="fill:none;stroke-width:1.2;stroke-linecap:butt;stroke-linejoin:miter;stroke:rgb(0%,0%,0%);stroke-opacity:1;stroke-miterlimit:10;" d="M 211.320312 175.414062 L 208.183594 200.828125 "/>
<path style="fill:none;stroke-width:1.2;stroke-linecap:butt;stroke-linejoin:miter;stroke:rgb(0%,0%,0%);stroke-opacity:1;stroke-miterlimit:10;" d="M 208.183594 200.828125 L 218.402344 208.539062 "/>
<path style="fill:none;stroke-width:1.2;stroke-linecap:butt;stroke-linejoin:miter;stroke:rgb(100%,0%,0%);stroke-opacity:1;stroke-miterlimit:10;" d="M 218.402344 208.539062 L 228.621094 216.25 "/>
<path style="fill:none;stroke-width:1.2;stroke-linecap:butt;stroke-linejoin:miter;stroke:rgb(100%,0%,0%);stroke-opacity:1;stroke-miterlimit:10;" d="M 228.621094 216.25 L 240.410156 211.257812 "/>
<path style="fill:none;stroke-width:1.2;stroke-linecap:butt;stroke-linejoin:miter;stroke:rgb(0%,0%,0%);stroke-opacity:1;stroke-miterlimit:10;" d="M 240.410156 211.257812 L 252.199219 206.261719 "/>
<path style=" stroke:none;fill-rule:nonzero;fill:rgb(100%,100%,100%);fill-opacity:1;" d="M 224.621094 209.75 L 233.621094 209.75 L 233.621094 222.75 L 224.621094 222.75 Z M 224.621094 209.75 "/>
<g style="fill:rgb(100%,0%,0%);fill-opacity:1;">
  <use xlink:href="#glyph0-2" x="224.621094" y="219.651367"/>
</g>
<path style="fill:none;stroke-width:1.2;stroke-linecap:butt;stroke-linejoin:miter;stroke:rgb(0%,0%,0%);stroke-opacity:1;stroke-miterlimit:10;" d="M 252.199219 206.261719 L 255.335938 180.847656 "/>
</g>
</svg>

<svg xmlns="http://www.w3.org/2000/svg" xmlns:xlink="http://www.w3.org/1999/xlink" width="300pt" height="300pt" viewBox="0 0 300 300"><defs><symbol overflow="visible"><path d="M.547 1.938V-7.75h5.5v9.688zm.625-.61h4.266v-8.47H1.171zm0 0"/></symbol><symbol overflow="visible" id="a"><path d="M1.078-8.016h1.47l3.546 6.704v-6.704h1.062V0H5.688L2.124-6.703V0H1.078zm0 0"/></symbol><symbol overflow="visible" id="b"><path d="M4.328-7.28c-.78 0-1.406.296-1.875.89-.46.585-.687 1.382-.687 2.39 0 1.012.226 1.813.687 2.406.47.586 1.094.875 1.875.875.79 0 1.414-.288 1.875-.874.457-.593.688-1.394.688-2.406 0-1.008-.23-1.805-.687-2.39-.46-.594-1.086-.89-1.875-.89zm0-.892c1.125 0 2.024.383 2.703 1.14C7.708-6.28 8.048-5.27 8.048-4c0 1.262-.34 2.273-1.016 3.03C6.353-.22 5.454.157 4.33.157S2.3-.22 1.625-.97c-.668-.75-1-1.757-1-3.03 0-1.27.332-2.28 1-3.03.676-.76 1.578-1.142 2.703-1.142zm0 0"/></symbol></defs><g><path fill="#fff" d="M0 0h300v300H0z"/><path d="M35.25 153.676l11.79-4.996" stroke-width="1.2" stroke="#000" stroke-miterlimit="10" fill="none"/><path d="M47.04 148.68l11.788-4.993M58.828 143.688l1.567-12.708" stroke-width="1.2" stroke="#00f" stroke-miterlimit="10" fill="none"/><path d="M60.395 130.98l1.57-12.707" stroke-width="1.2" stroke="#000" stroke-miterlimit="10" fill="none"/><path d="M58.828 143.688l10.22 7.71" stroke-width="1.2" stroke="#00f" stroke-miterlimit="10" fill="none"/><path d="M69.047 151.398l10.22 7.71" stroke-width="1.2" stroke="#000" stroke-miterlimit="10" fill="none"/><path d="M54.828 137.188h8v13h-8zm0 0" fill="#fff"/><use xlink:href="#a" x="54.828" y="147.089" fill="#00f"/><path d="M76.277 158.742l-1.57 12.707" stroke-width="1.2" stroke="#000" stroke-miterlimit="10" fill="none"/><path d="M74.707 171.45l-1.566 12.706" stroke-width="1.2" stroke="#f00" stroke-miterlimit="10" fill="none"/><path d="M82.258 159.48l-1.57 12.708" stroke-width="1.2" stroke="#000" stroke-miterlimit="10" fill="none"/><path d="M80.688 172.188l-1.567 12.707" stroke-width="1.2" stroke="#f00" stroke-miterlimit="10" fill="none"/><path d="M79.266 159.11l23.578-9.99" stroke-width="1.2" stroke="#000" stroke-miterlimit="10" fill="none"/><path d="M72.13 178.023h9v13h-9zm0 0" fill="#fff"/><use xlink:href="#b" x="72.129" y="187.925" fill="#f00"/><path d="M102.844 149.12l3.14-25.413M109.137 147.316l2.51-20.328M123.285 164.543l-20.44-15.422M105.984 123.707l23.575-9.988M129.56 113.72L150 129.14M127.977 120.07l16.35 12.34M150 129.14l-3.137 25.415M150 129.14l23.578-9.988M146.863 154.555l-23.578 9.988M142.152 150.008l-18.86 7.988M173.578 119.152l20.438 15.422M179.25 115.887l16.352 12.336M176.715 93.738l-3.137 25.414M194.016 134.574l23.578-9.988M217.594 124.586l3.14-25.414M223.887 122.785l2.51-20.332M238.035 140.012l-20.44-15.426M220.734 99.172l-20.44-15.422M220.734 99.172l11.786-4.992" stroke-width="1.2" stroke="#000" stroke-miterlimit="10" fill="none"/><path d="M232.52 94.18l11.79-4.996" stroke-width="1.2" stroke="#00f" stroke-miterlimit="10" fill="none"/><path d="M200.293 83.75l-23.578 9.988M200.285 90.297l-18.863 7.992" stroke-width="1.2" stroke="#000" stroke-miterlimit="10" fill="none"/><path d="M244.31 89.184l10.22 7.71" stroke-width="1.2" stroke="#00f" stroke-miterlimit="10" fill="none"/><path d="M254.53 96.895l10.22 7.714" stroke-width="1.2" stroke="#000" stroke-miterlimit="10" fill="none"/><path d="M242.727 95.535l8.175 6.168" stroke-width="1.2" stroke="#00f" stroke-miterlimit="10" fill="none"/><path d="M250.902 101.703l8.176 6.172" stroke-width="1.2" stroke="#000" stroke-miterlimit="10" fill="none"/><path d="M240.31 82.684h8v13h-8zm0 0" fill="#fff"/><use xlink:href="#a" x="240.309" y="92.585" fill="#00f"/><path d="M264.75 104.61l-1.57 12.703" stroke-width="1.2" stroke="#000" stroke-miterlimit="10" fill="none"/><path d="M263.18 117.313l-1.567 12.707M261.613 130.02l-11.79 4.996" stroke-width="1.2" stroke="#00f" stroke-miterlimit="10" fill="none"/><path d="M249.824 135.016l-11.79 4.996" stroke-width="1.2" stroke="#000" stroke-miterlimit="10" fill="none"/><path d="M256.902 125.473l-9.43 3.996" stroke-width="1.2" stroke="#00f" stroke-miterlimit="10" fill="none"/><path d="M247.473 129.47l-9.43 3.995" stroke-width="1.2" stroke="#000" stroke-miterlimit="10" fill="none"/><path d="M257.613 123.52h8v13h-8zm0 0" fill="#fff"/><use xlink:href="#a" x="257.613" y="133.421" fill="#00f"/><path d="M238.035 140.012l-1.57 12.707" stroke-width="1.2" stroke="#000" stroke-miterlimit="10" fill="none"/><path d="M236.465 152.72l-1.567 12.706M234.898 165.426l-11.79 4.992" stroke-width="1.2" stroke="#00f" stroke-miterlimit="10" fill="none"/><path d="M223.11 170.418l-11.79 4.996M255.336 180.848l-10.22-7.71" stroke-width="1.2" stroke="#000" stroke-miterlimit="10" fill="none"/><path d="M245.117 173.137l-10.22-7.71" stroke-width="1.2" stroke="#00f" stroke-miterlimit="10" fill="none"/><path d="M230.898 158.926h8v13h-8zm0 0" fill="#fff"/><use xlink:href="#a" x="230.898" y="168.827" fill="#00f"/><path d="M211.32 175.414l-3.136 25.414M208.184 200.828l10.218 7.71" stroke-width="1.2" stroke="#000" stroke-miterlimit="10" fill="none"/><path d="M218.402 208.54l10.22 7.71M228.62 216.25l11.79-4.992" stroke-width="1.2" stroke="#f00" stroke-miterlimit="10" fill="none"/><path d="M240.41 211.258l11.79-4.996" stroke-width="1.2" stroke="#000" stroke-miterlimit="10" fill="none"/><path d="M224.62 209.75h9v13h-9zm0 0" fill="#fff"/><use xlink:href="#b" x="224.621" y="219.651" fill="#f00"/><path d="M252.2 206.262l3.136-25.414" stroke-width="1.2" stroke="#000" stroke-miterlimit="10" fill="none"/></g></svg>
